;Generated with Cura_SteamEngine 14.09
; Default start code
; M220 S* Velocità
; M221 S* Flusso
; M600 X30 Y160 Z5 E0 L0  Sospensione stampa con LCD
; M106 S* Accende ventola
; M107 Spegne ventola
; M92 X* Y* Z* E* cambia passi ai motori
; G92 X* Y* Z* E* Imposta punto zero degli assi
G21       ;metric value
G90       ;Absolute positioning
M140 S65  ;faccio partire il lettino
G28       ;X0 Y0 Z0 Home axis
G29       ;auto bed leveling
M109 T0 S190  ;aspetta temperatura estrusore
T0
M190 S65      ;aspetta temperatura lettino
M82                  ; Extruder in absolute mode
G92 E0               ; Reset extruder position
G1 F200 E3           ;extrude 3mm of feed stock
G92 E0               ;zero the extruded length again
;Layer count: 70
;LAYER:0
M107
G0 F6000 X77.093 Y75.500 Z0.300
;TYPE:SKIRT
G1 F1800 X122.906 Y75.500 E1.16662
G1 X122.906 Y124.500 E2.41439
G1 X77.093 Y124.500 E3.58101
G1 X77.093 Y75.500 E4.82879
G0 F6000 X77.693 Y76.100
G1 F1800 X122.306 Y76.100 E5.96485
G1 X122.306 Y123.900 E7.18206
G1 X77.693 Y123.900 E8.31812
G1 X77.693 Y76.100 E9.53534
G0 F6000 X78.293 Y76.700
G1 F1800 X121.706 Y76.700 E10.64084
G1 X121.706 Y123.300 E11.82750
G1 X78.293 Y123.300 E12.93301
G1 X78.293 Y76.700 E14.11967
G1 F2400 E12.61967
G0 F6000 X82.493 Y80.900
;TYPE:WALL-INNER
G1 F2400 E14.11967
G1 F1800 X117.506 Y80.900 E15.01127
G1 X117.506 Y119.100 E15.98402
G1 X82.493 Y119.100 E16.87562
G1 X82.493 Y80.900 E17.84837
G0 F6000 X105.488 Y86.186
G1 F1800 X105.286 Y86.830 E17.86556
G1 X105.217 Y87.502 E17.88276
G1 X105.287 Y88.161 E17.89964
G1 X105.485 Y88.801 E17.91670
G1 X105.813 Y89.400 E17.93409
G1 X106.251 Y89.917 E17.95134
G1 X106.783 Y90.338 E17.96862
G1 X107.384 Y90.648 E17.98584
G1 X108.035 Y90.839 E18.00312
G1 X108.703 Y90.903 E18.02020
G1 X109.376 Y90.840 E18.03742
G1 X110.028 Y90.653 E18.05469
G1 X110.630 Y90.343 E18.07193
G1 X111.162 Y89.926 E18.08915
G1 X111.602 Y89.410 E18.10641
G1 X111.933 Y88.813 E18.12380
G1 X112.133 Y88.181 E18.14068
G1 X112.205 Y87.511 E18.15784
G1 X112.135 Y86.830 E18.17527
G1 X111.934 Y86.187 E18.19243
G1 X111.607 Y85.597 E18.20960
G1 X111.169 Y85.082 E18.22682
G1 X110.648 Y84.669 E18.24375
G1 X110.049 Y84.355 E18.26097
G1 X109.397 Y84.164 E18.27827
G1 X108.713 Y84.096 E18.29578
G1 X108.036 Y84.160 E18.31309
G1 X107.384 Y84.351 E18.33039
G1 X106.783 Y84.661 E18.34761
G1 X106.251 Y85.082 E18.36489
G1 X105.815 Y85.597 E18.38207
G1 X105.488 Y86.186 E18.39923
G0 F6000 X105.388 Y88.141
G0 X108.036 Y109.160
G1 F1800 X107.384 Y109.351 E18.41653
G1 X106.783 Y109.661 E18.43375
G1 X106.251 Y110.082 E18.45102
G1 X105.815 Y110.597 E18.46821
G1 X105.488 Y111.186 E18.48536
G1 X105.286 Y111.830 E18.50255
G1 X105.217 Y112.502 E18.51975
G1 X105.287 Y113.161 E18.53663
G1 X105.485 Y113.801 E18.55369
G1 X105.813 Y114.400 E18.57108
G1 X106.251 Y114.917 E18.58833
G1 X106.783 Y115.338 E18.60561
G1 X107.384 Y115.648 E18.62283
G1 X108.035 Y115.839 E18.64011
G1 X108.703 Y115.903 E18.65719
G1 X109.376 Y115.840 E18.67441
G1 X110.028 Y115.653 E18.69168
G1 X110.630 Y115.343 E18.70892
G1 X111.162 Y114.926 E18.72613
G1 X111.602 Y114.410 E18.74340
G1 X111.933 Y113.813 E18.76079
G1 X112.133 Y113.181 E18.77767
G1 X112.205 Y112.511 E18.79483
G1 X112.135 Y111.830 E18.81226
G1 X111.934 Y111.187 E18.82941
G1 X111.607 Y110.597 E18.84659
G1 X111.169 Y110.082 E18.86381
G1 X110.648 Y109.669 E18.88074
G1 X110.049 Y109.355 E18.89796
G1 X109.397 Y109.164 E18.91526
G1 X108.713 Y109.096 E18.93276
G1 X108.036 Y109.160 E18.95008
G0 F6000 X108.149 Y109.752
;TYPE:WALL-OUTER
G1 F1800 X107.608 Y109.910 E18.96443
G1 X107.110 Y110.168 E18.97871
G1 X106.670 Y110.515 E18.99298
G1 X106.311 Y110.940 E19.00715
G1 X106.042 Y111.424 E19.02125
G1 X105.877 Y111.951 E19.03531
G1 X105.820 Y112.501 E19.04940
G1 X105.878 Y113.040 E19.06320
G1 X106.040 Y113.566 E19.07722
G1 X106.310 Y114.059 E19.09153
G1 X106.670 Y114.484 E19.10571
G1 X107.110 Y114.831 E19.11998
G1 X107.608 Y115.089 E19.13426
G1 X108.149 Y115.247 E19.14862
G1 X108.704 Y115.300 E19.16281
G1 X109.264 Y115.248 E19.17713
G1 X109.806 Y115.092 E19.19150
G1 X110.305 Y114.836 E19.20578
G1 X110.745 Y114.491 E19.22002
G1 X111.107 Y114.067 E19.23421
G1 X111.379 Y113.575 E19.24853
G1 X111.543 Y113.057 E19.26237
G1 X111.602 Y112.510 E19.27638
G1 X111.544 Y111.951 E19.29069
G1 X111.379 Y111.424 E19.30475
G1 X111.111 Y110.940 E19.31884
G1 X110.750 Y110.515 E19.33304
G1 X110.320 Y110.174 E19.34701
G1 X109.823 Y109.914 E19.36130
G1 X109.282 Y109.755 E19.37565
G1 X108.712 Y109.699 E19.39024
G1 X108.149 Y109.752 E19.40464
G0 F6000 X108.111 Y109.354
G0 X110.010 Y109.450
G0 X111.523 Y110.655
G0 X112.103 Y112.510
G0 X117.706 Y119.390
G0 X118.106 Y119.700
G1 F1800 X81.893 Y119.700 E20.32680
G1 X81.893 Y80.300 E21.33011
G1 X118.106 Y80.300 E22.25227
G1 X118.106 Y119.700 E23.25558
G0 F6000 X117.706 Y119.390
G0 X109.302 Y90.646
G0 X109.264 Y90.248
G1 F1800 X109.806 Y90.092 E23.26994
G1 X110.305 Y89.836 E23.28422
G1 X110.745 Y89.491 E23.29846
G1 X111.107 Y89.067 E23.31266
G1 X111.379 Y88.575 E23.32697
G1 X111.543 Y88.057 E23.34081
G1 X111.602 Y87.510 E23.35482
G1 X111.544 Y86.951 E23.36913
G1 X111.379 Y86.424 E23.38319
G1 X111.111 Y85.940 E23.39728
G1 X110.750 Y85.515 E23.41148
G1 X110.320 Y85.174 E23.42546
G1 X109.823 Y84.914 E23.43974
G1 X109.282 Y84.755 E23.45410
G1 X108.712 Y84.699 E23.46868
G1 X108.149 Y84.752 E23.48308
G1 X107.608 Y84.910 E23.49743
G1 X107.110 Y85.168 E23.51172
G1 X106.670 Y85.515 E23.52599
G1 X106.311 Y85.940 E23.54015
G1 X106.042 Y86.424 E23.55425
G1 X105.877 Y86.951 E23.56832
G1 X105.820 Y87.501 E23.58240
G1 X105.878 Y88.040 E23.59620
G1 X106.040 Y88.566 E23.61022
G1 X106.310 Y89.059 E23.62453
G1 X106.670 Y89.484 E23.63871
G1 X107.110 Y89.831 E23.65298
G1 X107.608 Y90.089 E23.66727
G1 X108.149 Y90.247 E23.68162
G1 X108.704 Y90.300 E23.69582
G1 X109.264 Y90.248 E23.71014
G0 F6000 X109.301 Y91.057
;TYPE:FILL
G1 F1800 X117.295 Y99.052 E23.99804
G0 F6000 X117.295 Y99.900
G1 F1800 X108.487 Y91.093 E24.31522
G0 F6000 X107.426 Y90.880
G1 F1800 X117.295 Y100.749 E24.67063
G0 F6000 X117.295 Y101.597
G1 F1800 X96.807 Y81.110 E25.40844
G0 F6000 X95.959 Y81.110
G1 F1800 X117.295 Y102.446 E26.17681
G0 F6000 X117.295 Y103.294
G1 F1800 X95.110 Y81.110 E26.97573
G0 F6000 X94.262 Y81.110
G1 F1800 X117.295 Y104.143 E27.80521
G0 F6000 X117.295 Y104.991
G1 F1800 X93.413 Y81.110 E28.66524
G0 F6000 X92.565 Y81.110
G1 F1800 X117.295 Y105.840 E29.55584
G0 F6000 X117.295 Y106.688
G1 F1800 X91.716 Y81.110 E30.47699
G0 F6000 X90.868 Y81.110
G1 F1800 X117.295 Y107.537 E31.42869
G0 F6000 X117.295 Y108.386
G1 F1800 X90.019 Y81.110 E32.41097
G0 F6000 X89.171 Y81.110
G1 F1800 X117.295 Y109.234 E33.42379
G0 F6000 X117.295 Y110.083
G1 F1800 X88.322 Y81.110 E34.46719
G0 F6000 X87.474 Y81.110
G1 F1800 X117.295 Y110.931 E35.54112
G0 F6000 X117.295 Y111.780
G1 F1800 X86.625 Y81.110 E36.64563
G0 F6000 X85.777 Y81.110
G1 F1800 X117.295 Y112.628 E37.78068
G0 F6000 X117.295 Y113.477
G1 F1800 X84.928 Y81.110 E38.94630
G0 F6000 X84.079 Y81.110
G1 F1800 X117.295 Y114.325 E40.14248
G0 F6000 X117.295 Y115.174
G1 F1800 X83.231 Y81.110 E41.36921
G0 F6000 X82.702 Y81.429
G1 F1800 X110.775 Y109.502 E42.38019
G0 F6000 X111.817 Y110.544
G1 F1800 X117.295 Y116.022 E42.57747
G0 F6000 X117.295 Y116.871
G1 F1800 X112.355 Y111.930 E42.75539
G0 F6000 X112.384 Y112.808
G1 F1800 X117.295 Y117.719 E42.93225
G0 F6000 X117.295 Y118.568
G1 F1800 X112.245 Y113.518 E43.11411
G0 F6000 X112.000 Y114.121
G1 F1800 X116.768 Y118.889 E43.28582
G0 F6000 X115.919 Y118.889
G1 F1800 X111.676 Y114.646 E43.43862
G0 F6000 X111.280 Y115.099
G1 F1800 X115.071 Y118.889 E43.57513
G0 F6000 X114.222 Y118.889
G1 F1800 X110.805 Y115.471 E43.69820
G0 F6000 X110.256 Y115.771
G1 F1800 X113.373 Y118.889 E43.81047
G0 F6000 X112.525 Y118.889
G1 F1800 X109.623 Y115.987 E43.91498
G0 F6000 X108.883 Y116.095
G1 F1800 X111.676 Y118.889 E44.01558
G0 F6000 X110.828 Y118.889
G1 F1800 X107.980 Y116.041 E44.11815
G0 F6000 X106.363 Y115.273
G1 F1800 X109.979 Y118.889 E44.24837
G0 F6000 X109.131 Y118.889
G1 F1800 X82.702 Y92.460 E45.20015
G0 F6000 X82.702 Y91.612
G1 F1800 X105.800 Y114.710 E46.03197
G0 F6000 X105.072 Y113.133
G1 F1800 X82.702 Y90.763 E46.83757
G0 F6000 X82.702 Y89.914
G1 F1800 X105.032 Y112.245 E47.64175
G0 F6000 X105.161 Y111.525
G1 F1800 X82.702 Y89.066 E48.45056
G0 F6000 X82.702 Y88.217
G1 F1800 X105.399 Y110.914 E49.26794
G0 F6000 X105.718 Y110.385
G1 F1800 X82.702 Y87.369 E50.09681
G0 F6000 X82.702 Y86.520
G1 F1800 X106.107 Y109.926 E50.93970
G0 F6000 X106.581 Y109.551
G1 F1800 X82.702 Y85.672 E51.79965
G0 F6000 X82.702 Y84.823
G1 F1800 X107.125 Y109.246 E52.67918
G0 F6000 X107.750 Y109.023
G1 F1800 X82.702 Y83.975 E53.58123
G0 F6000 X82.702 Y83.126
G1 F1800 X108.482 Y108.906 E54.50963
G0 F6000 X109.375 Y108.951
G1 F1800 X82.702 Y82.278 E55.47020
G0 F6000 X82.702 Y93.309
G1 F1800 X108.282 Y118.889 E56.39140
G0 F6000 X107.434 Y118.889
G1 F1800 X82.702 Y94.157 E57.28207
G0 F6000 X82.702 Y95.006
G1 F1800 X106.585 Y118.889 E58.14216
G0 F6000 X105.737 Y118.889
G1 F1800 X82.702 Y95.854 E58.97171
G0 F6000 X82.702 Y96.703
G1 F1800 X104.888 Y118.889 E59.77069
G0 F6000 X104.040 Y118.889
G1 F1800 X82.702 Y97.551 E60.53912
G0 F6000 X82.702 Y98.400
G1 F1800 X103.191 Y118.889 E61.27699
G0 F6000 X102.343 Y118.889
G1 F1800 X82.702 Y99.248 E61.98431
G0 F6000 X82.702 Y100.097
G1 F1800 X101.494 Y118.889 E62.66106
G0 F6000 X100.646 Y118.889
G1 F1800 X82.702 Y100.945 E63.30727
G0 F6000 X82.702 Y101.794
G1 F1800 X99.797 Y118.889 E63.92291
G0 F6000 X98.948 Y118.889
G1 F1800 X82.702 Y102.642 E64.50799
G0 F6000 X82.702 Y103.491
G1 F1800 X98.100 Y118.889 E65.06251
G0 F6000 X97.251 Y118.889
G1 F1800 X82.702 Y104.339 E65.58648
G0 F6000 X82.702 Y105.188
G1 F1800 X96.403 Y118.889 E66.07989
G0 F6000 X95.554 Y118.889
G1 F1800 X82.702 Y106.037 E66.54272
G0 F6000 X82.702 Y106.885
G1 F1800 X94.706 Y118.889 E66.97502
G0 F6000 X93.857 Y118.889
G1 F1800 X82.702 Y107.734 E67.37674
G0 F6000 X82.702 Y108.582
G1 F1800 X93.009 Y118.889 E67.74792
G0 F6000 X92.160 Y118.889
G1 F1800 X82.702 Y109.431 E68.08853
G0 F6000 X82.702 Y110.279
G1 F1800 X91.312 Y118.889 E68.39860
G0 F6000 X90.463 Y118.889
G1 F1800 X82.702 Y111.128 E68.67809
G0 F6000 X82.702 Y111.976
G1 F1800 X89.615 Y118.889 E68.92705
G0 F6000 X88.766 Y118.889
G1 F1800 X82.702 Y112.825 E69.14543
G0 F6000 X82.702 Y113.673
G1 F1800 X87.918 Y118.889 E69.33327
G0 F6000 X87.069 Y118.889
G1 F1800 X82.702 Y114.522 E69.49054
G0 F6000 X82.702 Y115.370
G1 F1800 X86.221 Y118.889 E69.61727
G0 F6000 X85.372 Y118.889
G1 F1800 X82.702 Y116.219 E69.71342
G0 F6000 X82.702 Y117.067
G1 F1800 X84.524 Y118.889 E69.77903
G0 F6000 X82.702 Y117.916
G1 F1800 X83.675 Y118.889 E69.81407
G0 F6000 X82.702 Y118.764
G1 F1800 X82.826 Y118.889 E69.81856
G0 F6000 X105.228 Y88.681
G1 F1800 X97.656 Y81.110 E70.09123
G0 F6000 X98.504 Y81.110
G1 F1800 X105.018 Y87.623 E70.32580
G0 F6000 X105.074 Y86.831
G1 F1800 X99.353 Y81.110 E70.53183
G0 F6000 X100.201 Y81.110
G1 F1800 X105.270 Y86.178 E70.71436
G0 F6000 X105.561 Y85.620
G1 F1800 X101.050 Y81.110 E70.87679
G0 F6000 X101.899 Y81.110
G1 F1800 X105.927 Y85.138 E71.02185
G0 F6000 X106.363 Y84.725
G1 F1800 X102.747 Y81.110 E71.15205
G0 F6000 X103.596 Y81.110
G1 F1800 X106.867 Y84.381 E71.26985
G0 F6000 X107.446 Y84.112
G1 F1800 X104.444 Y81.110 E71.37796
G0 F6000 X105.293 Y81.110
G1 F1800 X108.124 Y83.941 E71.47991
G0 F6000 X108.939 Y83.908
G1 F1800 X106.141 Y81.110 E71.58068
G0 F6000 X106.990 Y81.110
G1 F1800 X110.001 Y84.120 E71.68909
G0 F6000 X110.384 Y81.110
G1 F1800 X117.295 Y88.021 E71.93798
G0 F6000 X117.295 Y88.869
G1 F1800 X109.535 Y81.110 E72.21742
G0 F6000 X108.687 Y81.110
G1 F1800 X117.295 Y89.718 E72.52741
G0 F6000 X117.295 Y90.566
G1 F1800 X107.838 Y81.110 E72.86797
G0 F6000 X111.232 Y81.110
G1 F1800 X117.295 Y87.172 E73.08629
G0 F6000 X117.295 Y86.324
G1 F1800 X112.081 Y81.110 E73.27406
G0 F6000 X112.929 Y81.110
G1 F1800 X117.295 Y85.475 E73.43128
G0 F6000 X117.295 Y84.627
G1 F1800 X113.778 Y81.110 E73.55793
G0 F6000 X114.626 Y81.110
G1 F1800 X117.295 Y83.778 E73.65403
G0 F6000 X117.295 Y82.930
G1 F1800 X115.475 Y81.110 E73.71958
G0 F6000 X116.324 Y81.110
G1 F1800 X117.295 Y82.081 E73.75454
G0 F6000 X117.172 Y81.110
G1 F1800 X117.295 Y81.233 E73.75897
G0 F6000 X112.192 Y86.312
G1 F1800 X117.295 Y91.415 E73.94275
G0 F6000 X117.295 Y92.263
G1 F1800 X112.399 Y87.367 E74.11906
G0 F6000 X112.345 Y88.162
G1 F1800 X117.295 Y93.112 E74.29733
G0 F6000 X117.295 Y93.961
G1 F1800 X112.151 Y88.816 E74.48259
G0 F6000 X111.860 Y89.374
G1 F1800 X117.295 Y94.809 E74.67832
G0 F6000 X117.295 Y95.658
G1 F1800 X111.495 Y89.858 E74.88720
G0 F6000 X111.061 Y90.272
G1 F1800 X117.295 Y96.506 E75.11170
G0 F6000 X117.295 Y97.355
G1 F1800 X110.557 Y90.617 E75.35435
G0 F6000 X109.977 Y90.885
G1 F1800 X117.295 Y98.203 E75.61789
;LAYER:1
M106 S127
G0 F6000 X110.048 Y90.509 Z0.550
;TYPE:WALL-INNER
G1 F2220 X110.624 Y90.211 E75.62936
G1 X111.131 Y89.810 E75.64079
G1 X111.504 Y89.373 E75.65095
G1 X111.862 Y88.753 E75.66361
G1 X112.054 Y88.139 E75.67499
G1 X112.120 Y87.500 E75.68635
G1 X112.054 Y86.860 E75.69773
G1 X111.862 Y86.246 E75.70910
G1 X111.550 Y85.682 E75.72050
G1 X111.132 Y85.190 E75.73192
G1 X110.624 Y84.788 E75.74337
G1 X110.048 Y84.490 E75.75484
G1 X109.424 Y84.308 E75.76634
G1 X108.778 Y84.247 E75.77781
G1 X108.131 Y84.308 E75.78930
G1 X107.507 Y84.490 E75.80080
G1 X106.931 Y84.788 E75.81227
G1 X106.497 Y85.132 E75.82206
G1 X106.429 Y85.183 E75.82356
G1 X106.006 Y85.682 E75.83513
G1 X105.693 Y86.246 E75.84654
G1 X105.501 Y86.860 E75.85791
G1 X105.435 Y87.502 E75.86933
G1 X105.489 Y88.011 E75.87838
G1 X105.489 Y88.102 E75.87999
G1 X105.693 Y88.753 E75.89205
G1 X106.006 Y89.317 E75.90346
G1 X106.423 Y89.809 E75.91486
G1 X106.931 Y90.211 E75.92632
G1 X107.507 Y90.509 E75.93779
G1 X108.130 Y90.691 E75.94927
G1 X108.778 Y90.754 E75.96078
G1 X109.425 Y90.691 E75.97227
G1 X110.048 Y90.509 E75.98375
G0 F6000 X111.519 Y89.268
G0 X117.656 Y80.750
G1 F2220 X117.656 Y119.250 E76.66458
G1 X82.343 Y119.250 E77.28905
G1 X82.343 Y80.750 E77.96988
G1 X117.656 Y80.750 E78.59435
G0 F6000 X110.048 Y109.490
G1 F2220 X109.424 Y109.308 E78.60585
G1 X108.778 Y109.247 E78.61732
G1 X108.131 Y109.308 E78.62881
G1 X107.507 Y109.490 E78.64031
G1 X106.931 Y109.788 E78.65178
G1 X106.497 Y110.132 E78.66157
G1 X106.429 Y110.183 E78.66307
G1 X106.006 Y110.682 E78.67464
G1 X105.693 Y111.246 E78.68605
G1 X105.501 Y111.860 E78.69742
G1 X105.435 Y112.502 E78.70884
G1 X105.489 Y113.011 E78.71789
G1 X105.489 Y113.102 E78.71950
G1 X105.693 Y113.753 E78.73156
G1 X106.006 Y114.317 E78.74297
G1 X106.423 Y114.809 E78.75437
G1 X106.931 Y115.211 E78.76583
G1 X107.507 Y115.509 E78.77730
G1 X108.130 Y115.691 E78.78878
G1 X108.778 Y115.754 E78.80029
G1 X109.425 Y115.691 E78.81178
G1 X110.048 Y115.509 E78.82326
G1 X110.624 Y115.211 E78.83473
G1 X111.131 Y114.810 E78.84616
G1 X111.504 Y114.373 E78.85632
G1 X111.862 Y113.753 E78.86898
G1 X112.054 Y113.139 E78.88036
G1 X112.120 Y112.500 E78.89172
G1 X112.054 Y111.860 E78.90310
G1 X111.862 Y111.246 E78.91447
G1 X111.550 Y110.682 E78.92587
G1 X111.132 Y110.190 E78.93729
G1 X110.624 Y109.788 E78.94874
G1 X110.048 Y109.490 E78.96021
G0 F6000 X108.129 Y109.465
G0 X108.226 Y109.801
;TYPE:WALL-OUTER
G1 F2220 X107.694 Y109.957 E78.97002
G1 X107.204 Y110.210 E78.97977
G1 X106.774 Y110.549 E78.98945
G1 X106.419 Y110.968 E78.99916
G1 X106.155 Y111.444 E79.00879
G1 X105.993 Y111.961 E79.01837
G1 X105.938 Y112.501 E79.02797
G1 X105.989 Y112.986 E79.03659
G1 X105.989 Y113.025 E79.03728
G1 X106.155 Y113.555 E79.04710
G1 X106.419 Y114.031 E79.05673
G1 X106.772 Y114.448 E79.06639
G1 X107.204 Y114.789 E79.07612
G1 X107.694 Y115.042 E79.08587
G1 X108.225 Y115.198 E79.09566
G1 X108.778 Y115.251 E79.10548
G1 X109.330 Y115.198 E79.11529
G1 X109.861 Y115.042 E79.12508
G1 X110.351 Y114.789 E79.13483
G1 X110.782 Y114.448 E79.14455
G1 X111.113 Y114.060 E79.15357
G1 X111.140 Y114.024 E79.15436
G1 X111.400 Y113.555 E79.16385
G1 X111.562 Y113.038 E79.17343
G1 X111.617 Y112.500 E79.18299
G1 X111.562 Y111.961 E79.19257
G1 X111.400 Y111.444 E79.20215
